X: 1
T: Anthony Murray's
M: 4/4
L: 1/8
R: strathspey
K: Amaj
E|:C>E A2 C>E A2|AFEB B,/B,/B, B,2|CD/E/AE FEAE|F>AEC A,/A,/A, A2:|
e>cAe c<A e>c|d>fe>c B/B/B Bc/d/|e>cAe c<A e>c|d>fe>c A/A/A Ac/d/|
e>cAe c<A e>c|egdf c/c/c c>B|FAEF DFCE|A/G/F/E/ Ac, A,/A,/A, A||
